X: 59
T:Gooseberry Blossoms
M:4/4s
L:1/4
K:C
E A A B|c d e f|d2 B G|E A A B|c d e ^f|g e d B|B A A2:|
|:a2 e d|c d e ^f| g2 d c| B c d B|a2 e d|c d e  ^f|g e d B|B A A2:|

